!!!!SEGMENT: pl-wtm--r-282-m_moniuszko-stanislaw--modlitwa-panska.krn
!!!cenid: 18xx:1663
!!!COM: Moniuszko, Stanisław
!!!COM-rismid: pe30008351
!!!CDT: 1819/05/05-1872/06/04
!!!CNT: Polish
!!!OTL: Modlitwa Pańska
!!!PDT: 1867
!!!AGN: Secular
!!!SMS-siglum: PL-Wtm
!!!SMS-shelfmark: R 282/M
!!!SMS-shelfwork: W
!!!SMS-variant:
!!!SMS-altvar:
!!!NIFC-rismid: 1001090409
!!!URL-scan: http://repozytorium.nifc.pl/skany/pl-wtm-nut--r282m
!!!ONB-nifc:
!!!key:
**kern	**kern	**dynam	**kern	**text	**text	**text	**dynam
*part2	*part2	*part2	*part1	*part1	*part1	*part1	*part1
*staff3	*staff2	*	*staff1	*staff1	*staff1	*staff1	*
*Iorgan	*Iempty	*	*Ivox	*	*	*	*
*I"Organ	*	*	*I"Głos	*	*	*	*
*I'org	*	*	*I'V	*	*	*	*
*clefF4	*clefG2	*	*clefG2	*	*	*	*
*k[b-e-a-d-]	*k[b-e-a-d-]	*	*k[b-e-a-d-]	*	*	*	*
*A-:	*A-:	*	*A-:	*	*	*	*
*M4/4	*M4/4	*	*M4/4	*	*	*	*
*met(c)	*met(c)	*	*met(c)	*	*	*	*
*>[A,B,B1,B,B1,B,B2,C]	*>[A,B,B1,B,B1,B,B2,C]	*	*>>[A,B,B1,B,B1,B,B2,C]	*	*	*	*
=1	=1	=1	=1	=1	=1	=1	=1
!!LO:TX:t=P:problem:all\right
*>A	*>A	*	*>A	*	*	*	*
*2\right	*2\right	*	*	*	*	*	*
!	!LO:TX:a:i:t=Lento.	!	!LO:TX:a:i:t=Słowa J. Moroza	!	!	!	!
!	!	!LO:DY:t=p.	!	!	!	!	!
2c\	(2cc\	p	1r	.	.	.	.
4A-\	4a-/	.	.	.	.	.	.
4F\	4f/	.	.	.	.	.	.
=2	=2	=2	=2	=2	=2	=2	=2
*^	*^	*	*	*	*	*	*
*	*ped	*	*	*	*	*	*	*	*
[1E-	2r	(1e-)	2rg	.	1r	.	.	.	.
.	2EE-\ 2BB-	.	2G\ 2d-	.	.	.	.	.	.
=3!|:	=3!|:	=3!|:	=3!|:	=3!|:	=3!|:	=3!|:	=3!|:	=3!|:	=3!|:
*>B	*>B	*>B	*>B	*>B	*	*>B	*	*	*
*	*^	*	*	*	*	*	*	*	*
!	!	!	!	!	!	!LO:TX:a:t=ad libit&colon; ma molto largo.	!	!	!	!
!	!	!	!	!	!	!LO:TX:a:t=e	!	!	!	!
!	!	!	!	!	!	!LO:TX:a:i:t=Modlitwa Pańska	!	!	!	!
4E-/]	4AA-\	1AA-	1c) [1e-	4c\	.	4e-/	W cię-	Bez	Za-	.
!	!	!	!	!	!	!LO:TX:a:t=f	!	!	!	!
4r	4r	.	.	4r	.	8f/	-zkiej	Twej	-wsze	.
!	!	!	!	!	!	!LO:TX:a:t=e	!	!	!	!
.	.	.	.	.	.	8e-/	nie-	po-	u-	.
!	!	!	!	!	!	!LO:TX:a:t=a	!	!	!	!
!	!	!	!	!	!	!LO:TX:t=P:problem:all\right	!	!	!	!
4r	2r	.	.	2r	.	4.a-\	-do-	-mo-	-ło-	.
[4E-/	.	.	.	.	.	.	.	.	.	.
!	!	!	!	!	!	!LO:TX:a:t=a	!	!	!	!
.	.	.	.	.	.	8a-\	-li	-cy	-mni	.
=4	=4	=4	=4	=4	=4	=4	=4	=4	=4	=4
2E-\]	2BB-\	1rAA	2e-/]	1d-	.	8.a-/	Któ-	Świę-	z_wła-	.
.	.	.	.	.	.	16g/	-rą	-ty,	-snej	.
!	!	!	!	!	!	!LO:TX:a:i:t=Muzyka\n St. Moniuszki	!	!	!	!
!	!	!	!	!	!	!LO:N:vis=8	!	!	!	!
.	.	.	.	.	.	8.g/	dziś	mo-	my	.
.	.	.	.	.	.	16a-/	po-	-cny	przy-	.
2ryy	2GG\	.	2b-/	.	.	4b-/	-no-	Bo-	-czy-	.
.	.	.	.	.	.	8e-/	-szę	-že	-ny	.
.	.	.	.	.	.	8r	.	.	.	.
*	*	*	*v	*v	*	*	*	*	*	*
!!LO:LB:g=original
=5	=5	=5	=5	=5	=5	=5	=5	=5	=5
*	*	*	*	*	*^	*	*	*	*
2E-/	1AA-	1rAA	1c 1e-	.	4cc\	2ryy	nie	nic	w_grze-	.
.	.	.	.	.	8b-/	.	śmiem	nie	-chach	.
.	.	.	.	.	8a-/	.	po-	zro-	gi-	.
(<4A-/	.	.	.	.	4.e-/	4e-\	-glą-	-bie-	-nie-	.
8E-/L)	.	.	.	.	.	8d-\	.	-my	-my	.
8A-/J	.	.	.	.	8f/	8f\	-dać	si-	a	.
*	*	*	*	*	*v	*v	*	*	*	*
=6	=6	=6	=6	=6	=6	=6	=6	=6	=6
2B-/	2E-\	1rAA	1d- 1e-	.	(8.g/	w_głąb	-ła-	są-	.
.	.	.	.	.	16a-/)	sa-	.	.	.
.	.	.	.	.	8b-/	-me-	-mi	-du	.
.	.	.	.	.	8g/	-go	na-	się	.
[4G/	2EE-\	.	.	.	4e-/	sie-	-szé-	stra-	.
12G/L]	.	.	.	.	8e-/	-bie.	-mi	-szym...	.
12F/	.	.	.	.	.	.	.	.	.
.	.	.	.	.	8r	.	.	.	.
12E-/J	.	.	.	.	.	.	.	.	.
*	*v	*v	*	*	*	*	*	*	*
=7	=7	=7	=7	=7	=7	=7	=7	=7
*	*	*^	*	*^	*	*	*	*
1AA- 1E-	4AA-\	2.e-/	1c	.	4e-/	2ryy	Ku	spraw	bądź	.
.	4r	.	.	.	16f/LL	.	To-	więc	nam	.
.	.	.	.	.	16g/JJ	.	.	.	.	.
.	.	.	.	.	16a-/LL	.	-bie	niech	mi-	.
.	.	.	.	.	16b-/JJ	.	.	.	.	.
.	2rAA	.	.	.	4.cc/	4cc\	Bo-	wo-	-ło-	.
.	.	8.a-/L	.	.	.	8a-\	.	-łam	.	.
.	.	.	.	.	8a-/	8a-\	-že	w_ser-	-ściw,	.
.	.	16e-/Jk	.	.	.	.	.	.	.	.
*	*	*v	*v	*	*	*	*	*	*	*
*	*	*	*	*v	*v	*	*	*	*
!!LO:LB:g=original
=8	=8	=8	=8	=8	=8	=8	=8	=8
2BB-/ 2E-	1rAA	1d- [1e-	.	(8.a-/	rę-	-decz-	od-	.
.	.	.	.	16g/)	-ce	.	-puść	.
.	.	.	.	8g/	me	-nej	na-	.
.	.	.	.	8a-/	pod-	po-	-sze	.
!LO:TX:a:t=md.	!	!	!	!	!	!	!	!
!LO:TX:b:t=mg.	!	!	!	!	!	!	!	!
2EE-/ 2G	.	.	.	4b-/	-no-	-ko-	wi-	.
.	.	.	.	8e-/	-szę	-rze:	-ny	.
.	.	.	.	8r	.	.	.	.
=9	=9	=9	=9	=9	=9	=9	=9	=9
*	*^	*	*	*	*	*	*	*
!	!	!	!	!	!	!	!	!	!LO:DY:a
2G-X/	(2AA-/	1rAA	4c/ (>4e-]	.	4cc\	i	bądź	jak	<
.	.	.	8d-/L	.	8b-\	wo-	wo-	od-	.
.	.	.	8e-/J	.	8cc\	-łam:	-la	-pu-	[
!	!	!	!	!	!	!	!	!	!LO:DY:a
4AA-/)	2DD-\	.	2F</ 2d- [2f	.	4.dd-\	Oj-	Two-	-szcza-	>
4AAn/	.	.	.	.	.	.	.	.	.
.	.	.	.	.	8cc\	-cze	-ja	-my	]
*	*v	*v	*	*	*	*	*	*	*
=10	=10	=10	=10	=10	=10	=10	=10	=10
4BB-/	2DD-\	2F</ 2f_	.	8.b-/	Któ-	w_nie-	wi-	.
.	.	.	.	16a-/	-ry	-bie	-no-	.
4BBn/	.	.	.	8g/	jes-	i	-waj-	.
.	.	.	.	8f/	-teś	na	-com	.
*	*	*^	*	*	*	*	*	*
2ryy	2CC/ 2C	4f/]	4A-\	.	4a-/	w_Nie-	zie-	na-	.
.	.	4en/)	8c\L	.	8g/	-bie!	-mi!	-szym!	.
!	!	!	!LO:N:vis=8.	!	!	!	!	!	!
.	.	.	8B-\J	.	8r	.	.	.	.
*	*	*v	*v	*	*	*	*	*	*
!!LO:LB:g=original
=11	=11	=11	=11	=11	=11	=11	=11	=11
!	!	!LO:TX:t=P:problem:korekta t.11-12 zapisany powyżej	!	!	!	!	!	!
4r	1FF	(>4A-/ 4f	.	1r	.	.	.	.
((2C/ 2A-	.	8a-/L	.	.	.	.	.	.
.	.	8b-/J	.	.	.	.	.	.
.	.	4.cc/	.	.	.	.	.	.
4F/))	.	.	.	.	.	.	.	.
.	.	8ff/	.	.	.	.	.	.
=12	=12	=12	=12	=12	=12	=12	=12	=12
*	*^	*^	*	*	*	*	*	*
4r	4ryy	1FF	8ee-/L	2ryy	.	1r	.	.	.	.
.	.	.	8dd-/	.	.	.	.	.	.	.
2.A-/	(>4D-\	.	8a-/	.	.	.	.	.	.	.
.	.	.	8b-/J	.	.	.	.	.	.	.
.	4AA-\	.	4.cc/)	4r	.	.	.	.	.	.
.	4C\)	.	.	4c\	.	.	.	.	.	.
.	.	.	8a-/	.	.	.	.	.	.	.
=13	=13	=13	=13	=13	=13	=13	=13	=13	=13	=13
2A-/	2F/	1rAA	(2f/	[1c	.	4f/	Pa-	Two-	Gdy	.
.	.	.	.	.	.	8a-/	-trząc	-ja	nas	.
.	.	.	.	.	.	8b-/	na	O-	o-	.
2G/	2En/	.	2g/	.	.	4.cc\	cu-	-pa-	-puś-	.
.	.	.	.	.	.	8cc\	-da	-trzność	-cisz	.
=14	=14	=14	=14	=14	=14	=14	=14	=14	=14	=14
4Gn/	2E-X\	1rAA	2.an/	2c\]	.	8cc\	Two-	Kar-	a	.
.	.	.	.	.	.	8cc\	-jej	-mi	któž	.
.	.	.	.	.	.	8qee-/	.	.	.	.
2.F/	.	.	.	.	.	8.dd-\	rę-	Świat	się	.
.	.	.	.	.	.	16cc\	-ki	ten	o-	.
.	2D-\	.	.	2B-\	.	4cc\	Świę-	ca-	-sta-	.
.	.	.	4b-/)	.	.	8b-\	-tej,	-ły,	-nie!	.
.	.	.	.	.	.	8r	.	.	.	.
=15	=15	=15	=15	=15	=15	=15	=15	=15	=15	=15
1E-	2D-\	1rAA	2.g/	2B-\	.	4b-\	na	i	i	.
.	.	.	.	.	.	8cc\	Two-	mu-	kto	.
.	.	.	.	.	.	8dd-\	-ją	-szkę	z_nas	.
.	2C\	.	.	4.A-\	.	4.ee-\	wiel-	ma-	wej-	.
.	.	.	[4a-/	.	.	.	.	.	.	.
.	.	.	.	8e-\	.	8a-/	-kość	-łą	-dzie	.
=16	=16	=16	=16	=16	=16	=16	=16	=16	=16	=16
2ryy	2F-X\	1rAA	8a-/L]	2d-\	.	8a-/	i	i	do	.
.	.	.	8g/J	.	.	8g/	nik-	lwa	Kró-	.
.	.	.	2a-/	.	.	8a-/	-czem-	dra-	-le-	.
.	.	.	.	.	.	8b-/	-ność	-pie-	-stwa	.
4E-/	2AA-\	.	.	[2c\	.	4cc\	mo-	-žne-	Twe-	.
4A-/	.	.	4cc/	.	.	8cc\	-ją	-go	-go!	.
.	.	.	.	.	.	8r	.	.	.	.
=17	=17	=17	=17	=17	=17	=17	=17	=17	=17	=17
2G/	(4C\	1rAA	2en/	1c]	.	(4cc\	wo-	gdy	na	.
.	4BB-\	.	.	.	.	8.en/)	-łam	nam	po-	.
.	.	.	.	.	.	16e/	stru-	žyć	-ku-	.
2F/	4AA-\	.	2f/	.	.	[4f/	-chla-	ka-	-sze-	.
!	!	!	!	!	!	!LO:TUP:a:problem:brak klamry	!	!	!	!
.	4FF\)	.	.	.	.	12f/]	.	.	.	.
.	.	.	.	.	.	12g/	-ły	-žesz	-nie	.
.	.	.	.	.	.	12a-/	po-	dla	nie	.
*	*v	*v	*	*	*	*	*	*	*	*
!!LO:PB:g=original
=18	=18	=18	=18	=18	=18	=18	=18	=18	=18
4D-\ 4B-	1r	[2.b-/	4f\	.	4b-\	-dzi-	świę-	wwodź-	.
4C\ 4G	.	.	4en\	.	8b-\	-wem	-tej	-že	.
.	.	.	.	.	8b-\	prze-	Twej	nas	.
4D-\ 4F	.	.	4f\	.	4.b-\	-ję-	chwa-	Pa-	.
4GG/ 4E-X	.	8b-/L]	4d-\ 4b-	.	.	.	.	.	.
*ped	*	*	*	*	*	*	*	*	*
.	.	8e-X/J	.	.	8bn\	-ty:	-ły,	-nie!	.
*v	*v	*	*	*	*	*	*	*	*
=19	=19	=19	=19	=19	=19	=19	=19	=19
1AA- 1F	(2e-/	1c	.	4cc^\	święć	daj-	a-	.
.	.	.	.	8.b-X\	się	-že	-le	.
.	.	.	.	16a-\	Twe	nam	nas	.
.	4a-/	.	.	4.a-\	I-	dzi-	wy-	.
.	4cc/	.	.	.	.	.	.	.
.	.	.	.	8a-\	-mie	-siaj	-baw	.
=20	=20	=20	=20	=20	=20	=20	=20	=20
*^	*	*	*	*	*	*	*	*
1F-X	(>2AA-\	4dd-/	1d-	.	8.dd-^\	przyjdź	chle-	od	.
.	.	.	.	.	16cc\	Kró-	-ba	wszel-	.
.	.	4f-X/	.	.	8b-\	-le-	po-	-kie-	.
.	.	.	.	.	8an\	-stwo	-wsze-	-go	.
.	4GG\	2b-/)	.	.	4.b-\	Two-	-dnie-	złe-	.
.	4GG-X\)	.	.	.	.	.	.	.	.
.	.	.	.	.	8b-\	-je!	-go	-go	.
!!LO:LB:g=original
=21	=21	=21	=21	=21	=21	=21	=21	=21	=21
2G-X/	N[>2C-X\	2b--/	4e-\	.	4ee-\	wo-	gdy	na	.
.	.	.	8f-X\L	.	8dd-\	-łam	nam	po-	.
.	.	.	8g-X\J	.	8cc-X\	stru-	žyć	-ku-	.
4C-/N]	[2FF-X\	[2a-/	[>2A-\	.	4.ff-X\	-chla-	ka-	-sze-	.
4Cn/	.	.	.	.	.	.	.	.	.
.	.	.	.	.	8ee-\	-ły	-žesz	-nie	.
=22	=22	=22	=22	=22	=22	=22	=22	=22	=22
4D-/	2FF-X\]	2a-/]	2A-\]	.	8dd-\	po-	dla	nie	.
.	.	.	.	.	8cc-X\	-dzi-	Twej	wwodź-	.
4Dn/	.	.	.	.	8b-/	-wem	świę-	-že	.
.	.	.	.	.	8a-/	prze-	-tej	nas	.
4E-/	4EE-\	([4a-/	(4c-X\	.	[4a-/	-ję-	chwa-	Pa-	.
!	!	!	!	!	!LO:TUP:a:problem:brak klamry	!	!	!	!
4Fn/	4DDn\	12a-/L]	4Bn\)	.	12a-/L]	.	.	.	.
.	.	12gn/	.	.	12g/J	.	.	.	.
.	.	12fn/J	.	.	12fn/	-ty:	-ły:	-nie,	.
=23	=23	=23	=23	=23	=23	=23	=23	=23	=23
4E-/	2.EE-\	2.e-/)	4cn\	.	(4e-/	Pa-	daj	wy-	.
4D-X/	.	.	4B-X\	.	8f/)	.	.	.	.
.	.	.	.	.	8g/	-nie	nam	-baw	.
2C/	.	.	2A-\	.	8.a-/	przyjdź	chle-	od	.
.	.	.	.	.	16g/	Kró-	-ba	wszel-	.
.	4FF\	4a-/	.	.	8a-/	-le-	po-	-kie-	.
.	.	.	.	.	8cc\	-stwo	-wsze-	-go	.
*v	*v	*	*	*	*	*	*	*	*
!!LO:LB:g=original
=24	=24	=24	=24	=24	=24	=24	=24	=24
1EE- 1E-	(>4cc/ 4e-/	2ryy	.	1ee-	Two-	-dnie-	złe-	.
.	8b-/L 8d-/L	.	.	.	.	.	.	.
.	8a-/J 8c/J	.	.	.	.	.	.	.
.	4f/	8d-\L	.	.	.	.	.	.
.	.	8B-\	.	.	.	.	.	.
.	4g/	8e-\	.	.	.	.	.	.
.	.	8d-\J	.	.	.	.	.	.
*	*v	*v	*	*	*	*	*	*
=25	=25	=25	=25	=25	=25	=25	=25
*^	*	*	*	*	*	*	*
(<4E-/	1AA-	2c/) 2a-	.	4a-/	-je!	-go!	-go!	.
8F/L	.	.	.	4r	.	.	.	.
8G/J	.	.	.	.	.	.	.	.
8A-/L	.	2e-/	.	2r	.	.	.	.
8B-/	.	.	.	.	.	.	.	.
8c/	.	.	.	.	.	.	.	.
8A-/J)	.	.	.	.	.	.	.	.
=26	=26	=26	=26	=26	=26	=26	=26	=26
*	*	*^	*	*	*	*	*	*
2.E-/	1AA-	(4b-/	1d-	.	1r	.	.	.	.
.	.	8a-/L	.	.	.	.	.	.	.
.	.	8g/J	.	.	.	.	.	.	.
.	.	8f/L	.	.	.	.	.	.	.
.	.	8e-/	.	.	.	.	.	.	.
[4E-^</	.	8g/	.	.	.	.	.	.	.
.	.	8f/J)	.	.	.	.	.	.	.
=27	=27	=27	=27	=27	=27	=27	=27	=27	=27
(<4E-/]	1AA-	2e-/	[2c\	.	1r	.	.	.	.
8F/L	.	.	.	.	.	.	.	.	.
8G/J	.	.	.	.	.	.	.	.	.
8A-\L	.	2a-/	8c\L]	.	.	.	.	.	.
8B-\	.	.	8d-\J	.	.	.	.	.	.
8c\	.	.	4e-\	.	.	.	.	.	.
8A-\J)	.	.	.	.	.	.	.	.	.
!!LO:LB:g=original
=28	=28	=28	=28	=28	=28	=28	=28	=28	=28
2F/	1AA-	(4dd-/	1d-	.	1r	.	.	.	.
.	.	8cc/L	.	.	.	.	.	.	.
.	.	8b-/J	.	.	.	.	.	.	.
2F-X/	.	8a-/L	.	.	.	.	.	.	.
.	.	8g/	.	.	.	.	.	.	.
.	.	8a-/	.	.	.	.	.	.	.
.	.	8b-/J	.	.	.	.	.	.	.
=29	=29	=29	=29	=29	=29	=29	=29	=29	=29
2E-/	4AA-\	4.cc/	2c\	.	1r	.	.	.	.
.	8BB-\L	.	.	.	.	.	.	.	.
.	8C\J	8a-/)	.	.	.	.	.	.	.
4F/	8D-\L	(4a-/	4.B-\	.	.	.	.	.	.
.	8C\	.	.	.	.	.	.	.	.
[4A-/	8D-\	4f/	.	.	.	.	.	.	.
.	8Dn\J	.	8Bn\	.	.	.	.	.	.
=30	=30	=30	=30	=30	=30	=30	=30	=30	=30
!LO:TX:t=1ma 2do	!	!	!	!	!	!	!	!	!
*>B1	*>B1	*>B1	*>B1	*	*>B1	*	*	*	*
4A-/]	4E-\	4e-/)	4c\	.	1r	.	.	.	.
4r	4ryy	4r	4r	.	.	.	.	.	.
(2G/	2EE-\ 2BB-	2e-/	2d-\	.	.	.	.	.	.
*	*	*v	*v	*	*	*	*	*	*
=31:|!	=31:|!	=31:|!	=31:|!	=31:|!	=31:|!	=31:|!	=31:|!	=31:|!
!LO:TX:t=3tia Volta.	!	!	!	!	!	!	!	!
*>B2	*>B2	*>B2	*	*>B2	*	*	*	*
4A-/)	4E-\	4c/ 4e-	.	1r	.	.	.	.
4r	4r	4r	.	.	.	.	.	.
2E-/ 2G	2EE-\	2d-/ 2b-	.	.	.	.	.	.
*v	*v	*	*	*	*	*	*	*
=32	=32	=32	=32	=32	=32	=32	=32
*>C	*>C	*	*>C	*	*	*	*
1AA- 1E- 1A-	1c; 1a-	.	1r;	.	.	.	.
!!LO:PB:g=original
==	==	==	==	==	==	==	==
*-	*-	*-	*-	*-	*-	*-	*-
!!!system-decoration: [s1][(s2,s3)]
!!!RDF**kern: < = below
!!!RDF**kern: > = above
!!!RDF**kern: N = linked
!!!AIN: 1 organ 1 vox
!!!ENC: Marta Chmielewska
!!!END: 2021-04-16
!!!ENC: Anastazja Marusiak
!!!END: 2021-03-30
